src/frontend/src/images/colocated-camera.svg

<svg width="22" height="14" viewBox="0 0 22 14" fill="none" xmlns="http://www.w3.org/2000/svg">
<path d="M5 1.33333C5 0.604167 5.58333 0 6.33333 0H11.6667C12.3958 0 13 0.604167 13 1.33333V6.66667C13 7.41667 12.3958 8 11.6667 8H6.33333C5.58333 8 5 7.41667 5 6.66667V1.33333ZM16.6458 0.75C16.8542 0.875 17 1.10417 17 1.33333V6.66667C17 6.91667 16.8542 7.14583 16.6458 7.27083C16.4167 7.375 16.1667 7.375 15.9583 7.22917L13.9583 5.89583L13.6667 5.70833V5.33333V2.66667V2.3125L13.9583 2.125L15.9583 0.791667C16.1667 0.645833 16.4167 0.645833 16.6458 0.75Z" fill="#013366"/>
<path d="M10.055 9.65775C9.97809 9.58022 9.87384 9.53668 9.76513 9.53668C9.65635 9.53668 9.5521 9.58022 9.4752 9.65775C9.39831 9.73529 9.35514 9.84043 9.35514 9.95005V10.9548C7.34943 10.8601 5.50078 10.4825 4.07018 9.86769C2.66288 9.26253 1.8225 8.48064 1.8225 7.77515C1.8225 7.09812 2.27313 6.35071 3.57895 5.75695L3.57901 4C3.42064 4.06016 3.3781 4.09727 3.22736 4.16233C1.14624 5.05679 0 6.33092 0 7.75001C0 9.1691 1.3567 10.4683 3.43789 11.3627C5.05876 12.0593 7.13018 12.4836 9.35521 12.5819V13.5866C9.35521 13.6963 9.39838 13.8014 9.47527 13.8789C9.55216 13.9565 9.65642 14 9.7652 14C9.87391 14 9.97815 13.9565 10.0551 13.8789L11.8957 12.0227C11.9625 11.9552 12 11.8637 12 11.7683C12 11.6729 11.9625 11.5814 11.8957 11.5139L10.055 9.65775Z" fill="#013366"/>
<path d="M18.6554 4.17933C18.4992 4.11711 18.1642 4.05759 18.0001 4L18 5.68192C19.3532 6.25028 20.3293 6.96576 20.3293 7.61394C20.3293 8.28932 19.4585 9.03783 18 9.61711C16.9416 10.0204 15.8343 10.3017 14.7025 10.4548C14.4935 10.4857 14.3049 10.5896 14.1751 10.7453C14.0453 10.9011 13.984 11.097 14.0036 11.2934C14.0249 11.5077 14.1406 11.7043 14.3232 11.8364C14.5058 11.9684 14.7389 12.0241 14.9671 11.9903C16.2331 11.8172 17.4717 11.5009 18.6554 11.0484C20.8121 10.1921 22 8.97241 22 7.61391C22 6.25542 20.8122 5.03557 18.6554 4.17933Z" fill="#013366"/>
</svg>

<svg xmlns="http://www.w3.org/2000/svg" width="22" height="14" fill="none" viewBox="0 0 22 14"><path fill="#013366" d="M5 1.33C5 .6 5.58 0 6.33 0h5.34C12.4 0 13 .6 13 1.33v5.34C13 7.42 12.4 8 11.67 8H6.33C5.58 8 5 7.42 5 6.67zM16.65.75c.2.13.35.35.35.58v5.34c0 .25-.15.48-.35.6q-.36.16-.7-.04l-2-1.33-.28-.2V2.32l.29-.19 2-1.33c.2-.14.46-.14.69-.04"/><path fill="#013366" d="M10.06 9.66a.4.4 0 0 0-.7.29v1c-2.01-.09-3.86-.47-5.29-1.08-1.4-.6-2.25-1.39-2.25-2.1 0-.67.45-1.42 1.76-2.01V4c-.16.06-.2.1-.35.16C1.15 5.06 0 6.33 0 7.75s1.36 2.72 3.44 3.61c1.62.7 3.69 1.12 5.92 1.22v1a.4.4 0 0 0 .4.42.4.4 0 0 0 .3-.12l1.84-1.86a.36.36 0 0 0 0-.5zM18.66 4.18c-.16-.06-.5-.12-.66-.18v1.68c1.35.57 2.33 1.29 2.33 1.93 0 .68-.87 1.43-2.33 2q-1.6.62-3.3.84c-.2.04-.4.14-.52.3a.74.74 0 0 0 .14 1.09q.3.2.65.15 1.9-.26 3.69-.94C20.8 10.19 22 8.97 22 7.6s-1.19-2.57-3.34-3.43"/></svg>
